X:23
T:Benjamin Bowlabags - Hale Parlby
F:http://www.vwml.org/record/SBG/3/
Z:Original Sibelius transcriptions by M. & S. Graebe
M:3/4
I:linebreak $
K:G
V:1 treble nm="P1"
V:1
 z z D D | G3 G G2 | F3 E D2 | G3 G G2 | B c d2 | D D | G3 G G2 | F3 E D2 | c2 c B |$ A4 | B c | %11
 d3 d d2 | c2 c c2 | B3 B B2 | A F D2 z2 | G3 G G2 | E !fermata!c2 B2 | A3 G F2 | G6 | %19

